svgs/solid/grapes.svg

<svg xmlns="http://www.w3.org/2000/svg" viewBox="0 0 512 512"><!--! Font Awesome Pro 6.1.2 by @fontawesome - https://fontawesome.com License - https://fontawesome.com/license (Commercial License) Copyright 2022 Fonticons, Inc. --><path d="M56 400C25.07 400 0 425.1 0 456S25.07 512 56 512s56-25.07 56-56S86.93 400 56 400zM112 231.9C142.1 231.9 168 206.9 168 176S142.9 120 112 120S56 145.1 56 176S81.1 231.9 112 231.9zM392.4 119.6c18.08-37.78 11.56-81.72-19.76-114.8c-6.009-6.352-16.8-6.354-22.8 .0097c-40.48 42.96-39.09 103.8 3.263 145.9l8.246 8.246c42.12 42.35 103 43.74 145.9 3.263c6.354-5.998 6.343-16.78-.0041-22.79C474.1 108.1 430.2 101.5 392.4 119.6zM248 208c30.93 0 56-25.07 56-56S278.9 96 248 96S192 121.1 192 152S217.1 208 248 208zM88 256C57.07 256 32 281.1 32 312s25.07 56 56 56S144 342.9 144 312S118.9 256 88 256zM200 368c-30.93 0-56 25.07-56 56S169.1 480 200 480S256 454.9 256 424S230.9 368 200 368zM336 344c-30.93 0-55.93 25.05-55.93 55.97S305.1 456 336 456s56-25.07 56-56S366.9 344 336 344zM360 208c-30.93 0-56 25.07-56 56S329.1 320 360 320S416 294.9 416 264S390.9 208 360 208zM224 232C193.1 232 168 257.1 168 288S193.1 344 224 344S280 318.9 280 288S254.9 232 224 232z"/></svg>

<svg xmlns="http://www.w3.org/2000/svg" viewBox="0 0 512 512"><!--! Font Awesome Pro 6.2.0 by @fontawesome - https://fontawesome.com License - https://fontawesome.com/license (Commercial License) Copyright 2022 Fonticons, Inc. --><path d="M346.7 6C337.6 17 320 42.3 320 72c0 40 15.3 55.3 40 80s40 40 80 40c29.7 0 55-17.6 66-26.7c4-3.3 6-8.2 6-13.3s-2-10-6-13.2c-11.4-9.1-38.3-26.8-74-26.8c-32 0-40 8-40 8s8-8 8-40c0-35.7-17.7-62.6-26.8-74C370 2 365.1 0 360 0s-10 2-13.3 6zM304 152c0-30.9-25.1-56-56-56s-56 25.1-56 56s25.1 56 56 56s56-25.1 56-56zM112 232c30.9 0 56-25.1 56-56s-25.1-56-56-56s-56 25.1-56 56s25.1 56 56 56zm32 80c0-30.9-25.1-56-56-56s-56 25.1-56 56s25.1 56 56 56s56-25.1 56-56zM112 456c0-30.9-25.1-56-56-56s-56 25.1-56 56s25.1 56 56 56s56-25.1 56-56zm144-32c0-30.9-25.1-56-56-56s-56 25.1-56 56s25.1 56 56 56s56-25.1 56-56zm80 32c30.9 0 56-25.1 56-56s-25.1-56-56-56s-56 25.1-56 56s25.1 56 56 56zM280 288c0-30.9-25.1-56-56-56s-56 25.1-56 56s25.1 56 56 56s56-25.1 56-56zm80 32c30.9 0 56-25.1 56-56s-25.1-56-56-56s-56 25.1-56 56s25.1 56 56 56z"/></svg>
